packages/icons/src/shopping-bag-fill.svg

<svg xmlns="http://www.w3.org/2000/svg" width="24" height="24" fill="none" viewBox="0 0 24 24">
  <path fill="#000" d="M19 6h-2c0-2.76-2.24-5-5-5S7 3.24 7 6H5c-1.1 0-1.99.9-1.99 2L3 20c0 1.1.9 2 2 2h14c1.1 0 2-.9 2-2V8c0-1.1-.9-2-2-2Zm-7-3c1.66 0 3 1.34 3 3H9c0-1.66 1.34-3 3-3Zm0 10c-2.76 0-5-2.24-5-5h2c0 1.66 1.34 3 3 3s3-1.34 3-3h2c0 2.76-2.24 5-5 5Z"/>
</svg>

<svg width="24" height="24" viewBox="0 0 24 24" fill="none" xmlns="http://www.w3.org/2000/svg">
<path d="M19 6H17C17 3.24 14.76 1 12 1C9.24 1 7 3.24 7 6H5C3.9 6 3.01 6.9 3.01 8L3 20C3 21.1 3.9 22 5 22H19C20.1 22 21 21.1 21 20V8C21 6.9 20.1 6 19 6ZM12 3C13.66 3 15 4.34 15 6H9C9 4.34 10.34 3 12 3ZM12 13C9.24 13 7 10.76 7 8H9C9 9.66 10.34 11 12 11C13.66 11 15 9.66 15 8H17C17 10.76 14.76 13 12 13Z" fill="black"/>
</svg>
